public/icons/help_circle.svg

<svg width="25" height="24" viewBox="0 0 25 24" fill="none" xmlns="http://www.w3.org/2000/svg">
<path d="M13.1745 8.02434C12.709 7.94449 12.2302 8.03197 11.823 8.27129C11.4158 8.5106 11.1065 8.88631 10.9497 9.33187C10.7665 9.85286 10.1956 10.1266 9.67456 9.94336C9.15357 9.76008 8.8798 9.18917 9.06307 8.66818C9.37654 7.77707 9.99527 7.02565 10.8097 6.54702C11.6241 6.06839 12.5816 5.89343 13.5126 6.05313C14.4437 6.21283 15.2882 6.69688 15.8965 7.41955C16.5047 8.14207 16.8377 9.0565 16.8364 10.0009C16.836 11.5313 15.7013 12.5419 14.8911 13.0821C14.4555 13.3725 14.027 13.586 13.7113 13.7263C13.552 13.7971 13.4179 13.8508 13.3213 13.8876C13.2729 13.9061 13.2337 13.9204 13.2051 13.9305L13.1704 13.9427L13.1593 13.9465L13.1554 13.9478L13.1539 13.9483C13.1539 13.9483 13.1526 13.9487 12.8364 13L13.1526 13.9487C12.6287 14.1234 12.0624 13.8402 11.8877 13.3162C11.7132 12.7927 11.9959 12.2267 12.5191 12.0517L12.5351 12.0461C12.5505 12.0406 12.5757 12.0315 12.6093 12.0187C12.6767 11.993 12.777 11.9529 12.899 11.8987C13.1459 11.789 13.4673 11.6276 13.7817 11.418C14.4713 10.9582 14.8364 10.4692 14.8364 10L14.8364 9.99853C14.8371 9.52621 14.6706 9.06889 14.3665 8.70755C14.0623 8.34622 13.64 8.10419 13.1745 8.02434Z" fill="#19191B"/>
<path d="M12.9163 16C12.364 16 11.9163 16.4477 11.9163 17C11.9163 17.5523 12.364 18 12.9163 18H12.9263C13.4786 18 13.9263 17.5523 13.9263 17C13.9263 16.4477 13.4786 16 12.9263 16H12.9163Z" fill="#19191B"/>
<path fill-rule="evenodd" clip-rule="evenodd" d="M1.91629 12C1.91629 5.92487 6.84116 1 12.9163 1C18.9914 1 23.9163 5.92487 23.9163 12C23.9163 18.0751 18.9914 23 12.9163 23C6.84116 23 1.91629 18.0751 1.91629 12ZM12.9163 3C7.94573 3 3.91629 7.02944 3.91629 12C3.91629 16.9706 7.94573 21 12.9163 21C17.8869 21 21.9163 16.9706 21.9163 12C21.9163 7.02944 17.8869 3 12.9163 3Z" fill="#19191B"/>
</svg>

<svg xmlns="http://www.w3.org/2000/svg" width="25" height="24" fill="none"><path fill="#19191B" d="M13.175 8.024a2 2 0 0 0-2.225 1.308 1 1 0 1 1-1.887-.664 4 4 0 0 1 7.773 1.333c0 1.53-1.135 2.54-1.945 3.081a8.044 8.044 0 0 1-1.686.848l-.035.013-.01.004h-.005l-.001.001-.318-.948.317.949a1 1 0 0 1-.634-1.897l.016-.006.074-.027a6.045 6.045 0 0 0 1.172-.6c.69-.46 1.055-.95 1.055-1.419v-.001a2 2 0 0 0-1.662-1.975ZM12.916 16a1 1 0 1 0 0 2h.01a1 1 0 1 0 0-2h-.01Z"/><path fill="#19191B" fill-rule="evenodd" d="M1.916 12c0-6.075 4.925-11 11-11s11 4.925 11 11-4.925 11-11 11-11-4.925-11-11Zm11-9a9 9 0 1 0 0 18 9 9 0 0 0 0-18Z" clip-rule="evenodd"/></svg>
